img/dangers__extorsion.svg

<svg width="50" height="50" viewBox="0 0 50 50" fill="none" xmlns="http://www.w3.org/2000/svg">
<g clip-path="url(#clip0)">
<path d="M17.6758 35.3033H32.3242V26.4854H17.6758V35.3033ZM25 29.4247C25.809 29.4247 26.4648 30.0827 26.4648 30.8943C26.4648 31.706 25.809 32.364 25 32.364C24.191 32.364 23.5352 31.706 23.5352 30.8943C23.5352 30.0827 24.191 29.4247 25 29.4247Z" fill="#304BAB"/>
<path d="M45.2823 5.91022C37.5674 5.91022 32.8971 4.46814 30.3376 3.25847C27.7314 2.02653 26.7482 0.787374 26.6595 0.670675C26.1273 -0.164969 24.9626 -0.239383 24.3268 0.55837C24.2413 0.653878 23.056 1.93962 20.1898 3.21403C17.4232 4.44401 12.4931 5.91032 4.71741 5.91032C3.90842 5.91032 3.25256 6.56833 3.25256 7.37995V30.8945C3.25256 36.8754 7.02463 42.0866 14.161 45.9648C19.01 48.5999 24.4234 50 24.9999 50C25.5141 50 30.8724 48.6637 35.8388 45.9647C42.9751 42.0865 46.7472 36.8753 46.7472 30.8944V7.37985C46.7472 6.56823 46.0914 5.91022 45.2823 5.91022ZM35.2538 36.773C35.2538 37.5846 34.598 38.2426 33.789 38.2426H16.2109C15.4019 38.2426 14.746 37.5846 14.746 36.773V25.0158C14.746 24.2042 15.4019 23.5462 16.2109 23.5462H17.6803V19.0882C17.6803 15.1959 20.7786 11.7888 25.0442 11.7888C29.0558 11.7888 32.3196 15.0633 32.3196 19.0882C32.3196 19.8998 31.6637 20.5578 30.8547 20.5578C30.0457 20.5578 29.3899 19.8998 29.3899 19.0882C29.3899 16.7915 27.5801 14.7282 24.9557 14.7282C22.5595 14.7282 20.61 16.6841 20.61 19.0882V23.5462H33.789C34.598 23.5462 35.2538 24.2042 35.2538 25.0158V36.773Z" fill="#304BAB"/>
</g>
<defs>
<clipPath id="clip0">
<rect width="50" height="50" fill="white"/>
</clipPath>
</defs>
</svg>

<svg width="50" height="50" viewBox="0 0 50 50" fill="none" xmlns="http://www.w3.org/2000/svg"><g clip-path="url(#clip0)" fill="#304BAB"><path d="M17.676 35.303h14.648v-8.818H17.676v8.818zM25 29.425c.809 0 1.465.658 1.465 1.47 0 .811-.656 1.469-1.465 1.469a1.467 1.467 0 01-1.465-1.47c0-.811.656-1.47 1.465-1.47z"/><path d="M45.282 5.91c-7.715 0-12.385-1.442-14.944-2.652C27.73 2.027 26.748.788 26.66.671a1.418 1.418 0 00-2.333-.113c-.086.096-1.271 1.382-4.137 2.656-2.767 1.23-7.697 2.696-15.473 2.696-.809 0-1.464.658-1.464 1.47v23.514c0 5.981 3.772 11.193 10.908 15.07C19.01 48.6 24.423 50 25 50c.514 0 5.872-1.336 10.839-4.035 7.136-3.879 10.908-9.09 10.908-15.07V7.38c0-.812-.656-1.47-1.465-1.47zM35.254 36.773c0 .812-.656 1.47-1.465 1.47H16.211a1.467 1.467 0 01-1.465-1.47V25.016c0-.812.656-1.47 1.465-1.47h1.47v-4.458c0-3.892 3.098-7.3 7.363-7.3 4.012 0 7.276 3.275 7.276 7.3 0 .812-.656 1.47-1.465 1.47a1.467 1.467 0 01-1.465-1.47c0-2.297-1.81-4.36-4.434-4.36-2.396 0-4.346 1.956-4.346 4.36v4.458h13.179c.809 0 1.465.658 1.465 1.47v11.757z"/></g><defs><clipPath id="clip0"><path fill="#fff" d="M0 0h50v50H0z"/></clipPath></defs></svg>
